file/total-sa.svg

<svg clip-rule="evenodd" fill-rule="evenodd" stroke-linejoin="round" stroke-miterlimit="1.41421" viewBox="0 0 560 400" xmlns="http://www.w3.org/2000/svg"><g fill-rule="nonzero" transform="matrix(1.40397 0 0 1.40397 -185.315 -786.312)"><g fill="#ed1a3a"><path d="m331.497 694.15c-11.95 0-18.796 5.13-18.796 14.076 0 8.852 6.846 13.981 18.796 13.981 11.936 0 18.767-5.129 18.767-13.981 0-8.946-6.831-14.076-18.767-14.076m0 21.56c-6.536 0-9.838-2.5-9.838-7.484 0-5.038 3.302-7.56 9.838-7.56 6.52 0 9.855 2.522 9.855 7.56 0 4.984-3.335 7.484-9.855 7.484"/><path d="m385.311 694.835h-32.602v5.984h11.318v18.577c0 1.771 2.706 2.411 4.994 2.411 2.283 0 4.99-.608 4.99-2.411v-18.577h11.3"/><path d="m445.528 715.34c-2.767 0-4.665-.462-5.705-1.321-1.347-1.145-1.503-2.847-1.539-4.137v-13.112c0-1.75-2.569-2.319-4.759-2.319-2.224 0-4.806.569-4.806 2.289v12.7c0 4.846 1.556 8.246 4.658 10.107 3.827 2.22 10.786 2.14 17.476 2.056h8.366v-6.263"/><path d="m316.843 686.723h-39.526v6.597h13.63v20.032c0 4.734 3.982 7.952 10.738 8.511v-28.543h15.158"/><path d="m407.331 695.158c-.843-.576-1.727-.707-2.88-.743-1.183.038-2.103.167-2.92.743-2.583 1.858-15.066 14.398-17.267 25.366l-.251 1.084h8.832l.162-.786c.37-1.548.937-3.234 1.712-4.967h19.416c.773 1.733 1.36 3.419 1.684 4.967l.187.786h8.847l-.236-1.084c-2.228-10.968-14.7-23.508-17.286-25.366m-9.496 15.054c1.858-2.818 4.106-5.566 6.616-8.017 2.466 2.451 4.702 5.199 6.569 8.017"/></g><path d="m262.293 706.202c-.04-.139-.093-.27-.145-.399-4.585 5.228-15.843 8.616-25.971 7.864-5.965-.444-17.013-3.528-22.588-6.944 5.892 5.64 12.779 9.928 20.59 12.239 9.272 2.757 19.157 2.569 24.73-.332 4.092-2.753 5.019-7.677 3.384-12.428" fill="#f8981d"/><path d="m249.543 673.294c18.256 10.773 7.39 44.681-7.138 55.576-13.517 10.132-27.902 5.46-31.02-3.884 2.727 4.048 8.131 5.528 12.932 3.91 13.347-5.344 20.218-29.514 21.107-37.905.593-7.225-.348-12.079-2.857-15.133-2.878-3.035-7.276-4.511-13.726-2.488 4.435-3.638 13.93-4.07 20.702-.076" fill="#034ea2"/><path d="m259.757 718.152.218-.138.035-.027c.376-.247.747-.52 1.094-.839.158-.142.325-.3.484-.466 7.101-7.204 8.608-27.239-8.898-36.73-6.226-3.381-20.713-8.11-35.153-.813-4.783 2.409-9.709 7.42-12.367 14.228 1.96-3.232 5.35-5.424 12.027-6.365 6.661-.842 15.851.194 24.829 3.366 5.796 2.134 10.479 4.772 14.147 7.759 3.02 2.588 4.965 5.056 5.973 7.675.052.132.106.26.147.4 1.635 4.749.708 9.672-3.383 12.43.194-.102.375-.199.582-.325l.089-.049z" fill="#ed1a3a"/><path d="m207.429 704.894c.336.532 1.096 1.44 1.584 2.012 3.518-8.25 22.738-13.607 28.406-13.539-12.736-4.1-25.22-2.144-30.234 2.205-1.824 2.031-2.392 5.076.244 9.322" fill="#f8981d"/><path d="m244.915 723.599c-10.238-.569-25.139-4.512-35.699-16.467l-.201-.228c-.491-.57-1.25-1.478-1.586-2.01-2.637-4.243-2.068-7.291-.244-9.319h-.005c-.331.296-.735.677-1.192 1.268-2.708 3.492-3.031 9.161-1.189 15.171 4.024 13.05 21.624 20.902 35.905 18.746 9.127-1.376 14.847-6.51 17.227-8.608-5.172 1.472-8.99 1.676-13.016 1.447" fill="#4395d1"/></g></svg>

<?xml version="1.0" encoding="UTF-8" standalone="no"?>
<!DOCTYPE svg PUBLIC "-//W3C//DTD SVG 1.1//EN" "http://www.w3.org/Graphics/SVG/1.1/DTD/svg11.dtd">
<svg width="100%" height="100%" viewBox="0 0 560 400" version="1.1" xmlns="http://www.w3.org/2000/svg" xmlns:xlink="http://www.w3.org/1999/xlink" xml:space="preserve" xmlns:serif="http://www.serif.com/" style="fill-rule:evenodd;clip-rule:evenodd;stroke-linejoin:round;stroke-miterlimit:1.41421;">
    <g transform="matrix(1.40397,0,0,1.40397,-185.315,-786.312)">
        <path id="path94" d="M331.497,694.15C319.547,694.15 312.701,699.28 312.701,708.226C312.701,717.078 319.547,722.207 331.497,722.207C343.433,722.207 350.264,717.078 350.264,708.226C350.264,699.28 343.433,694.15 331.497,694.15M331.497,715.71C324.961,715.71 321.659,713.21 321.659,708.226C321.659,703.188 324.961,700.666 331.497,700.666C338.017,700.666 341.352,703.188 341.352,708.226C341.352,713.21 338.017,715.71 331.497,715.71" style="fill:rgb(237,26,58);fill-rule:nonzero;"/>
        <path id="path98" d="M385.311,694.835L352.709,694.835L352.709,700.819L364.027,700.819L364.027,719.396C364.027,721.167 366.733,721.807 369.021,721.807C371.304,721.807 374.011,721.199 374.011,719.396L374.011,700.819L385.311,700.819" style="fill:rgb(237,26,58);fill-rule:nonzero;"/>
        <path id="path110" d="M445.528,715.34C442.761,715.34 440.863,714.878 439.823,714.019C438.476,712.874 438.32,711.172 438.284,709.882L438.284,696.77C438.284,695.02 435.715,694.451 433.525,694.451C431.301,694.451 428.719,695.02 428.719,696.74L428.719,709.44C428.719,714.286 430.275,717.686 433.377,719.547C437.204,721.767 444.163,721.687 450.853,721.603L459.219,721.603L459.219,715.34" style="fill:rgb(237,26,58);fill-rule:nonzero;"/>
        <path id="path114" d="M316.843,686.723L277.317,686.723L277.317,693.32L290.947,693.32L290.947,713.352C290.947,718.086 294.929,721.304 301.685,721.863L301.685,693.32L316.843,693.32" style="fill:rgb(237,26,58);fill-rule:nonzero;"/>
        <path id="path118" d="M407.331,695.158C406.488,694.582 405.604,694.451 404.451,694.415C403.268,694.453 402.348,694.582 401.531,695.158C398.948,697.016 386.465,709.556 384.264,720.524L384.013,721.608L392.845,721.608L393.007,720.822C393.377,719.274 393.944,717.588 394.719,715.855L414.135,715.855C414.908,717.588 415.495,719.274 415.819,720.822L416.006,721.608L424.853,721.608L424.617,720.524C422.389,709.556 409.917,697.016 407.331,695.158M397.835,710.212C399.693,707.394 401.941,704.646 404.451,702.195C406.917,704.646 409.153,707.394 411.02,710.212" style="fill:rgb(237,26,58);fill-rule:nonzero;"/>
        <path id="path122" d="M262.293,706.202C262.253,706.063 262.2,705.932 262.148,705.803C257.563,711.031 246.305,714.419 236.177,713.667C230.212,713.223 219.164,710.139 213.589,706.723C219.481,712.363 226.368,716.651 234.179,718.962C243.451,721.719 253.336,721.531 258.909,718.63C263.001,715.877 263.928,710.953 262.293,706.202" style="fill:rgb(248,152,29);fill-rule:nonzero;"/>
        <path id="path134" d="M249.543,673.294C267.799,684.067 256.933,717.975 242.405,728.87C228.888,739.002 214.503,734.33 211.385,724.986C214.112,729.034 219.516,730.514 224.317,728.896C237.664,723.552 244.535,699.382 245.424,690.991C246.017,683.766 245.076,678.912 242.567,675.858C239.689,672.823 235.291,671.347 228.841,673.37C233.276,669.732 242.771,669.3 249.543,673.294" style="fill:rgb(3,78,162);fill-rule:nonzero;"/>
        <path id="path138" d="M259.757,718.152L259.975,718.014L260.01,717.987C260.386,717.74 260.757,717.467 261.104,717.148C261.262,717.006 261.429,716.848 261.588,716.682C268.689,709.478 270.196,689.443 252.69,679.952C246.464,676.571 231.977,671.842 217.537,679.139C212.754,681.548 207.828,686.559 205.17,693.367C207.13,690.135 210.52,687.943 217.197,687.002C223.858,686.16 233.048,687.196 242.026,690.368C247.822,692.502 252.505,695.14 256.173,698.127C259.193,700.715 261.138,703.183 262.146,705.802C262.198,705.934 262.252,706.062 262.293,706.202C263.928,710.951 263.001,715.874 258.91,718.632C259.104,718.53 259.285,718.433 259.492,718.307L259.581,718.258L259.757,718.152" style="fill:rgb(237,26,58);fill-rule:nonzero;"/>
        <path id="path142" d="M207.429,704.894C207.765,705.426 208.525,706.334 209.013,706.906C212.531,698.656 231.751,693.299 237.419,693.367C224.683,689.267 212.199,691.223 207.185,695.572C205.361,697.603 204.793,700.648 207.429,704.894" style="fill:rgb(248,152,29);fill-rule:nonzero;"/>
        <path id="path154" d="M244.915,723.599C234.677,723.03 219.776,719.087 209.216,707.132L209.015,706.904C208.524,706.334 207.765,705.426 207.429,704.894C204.792,700.651 205.361,697.603 207.185,695.575L207.18,695.575C206.849,695.871 206.445,696.252 205.988,696.843C203.28,700.335 202.957,706.004 204.799,712.014C208.823,725.064 226.423,732.916 240.704,730.76C249.831,729.384 255.551,724.25 257.931,722.152C252.759,723.624 248.941,723.828 244.915,723.599" style="fill:rgb(67,149,209);fill-rule:nonzero;"/>
    </g>
</svg>
